elementary-add/apps/48/syspeek.svg

<?xml version="1.0" encoding="UTF-8" standalone="no"?>
<!-- Created with Inkscape (http://www.inkscape.org/) -->
<svg id="svg4296" xmlns:rdf="http://www.w3.org/1999/02/22-rdf-syntax-ns#" xmlns="http://www.w3.org/2000/svg" height="48" width="48" version="1.1" xmlns:cc="http://creativecommons.org/ns#" xmlns:xlink="http://www.w3.org/1999/xlink" xmlns:dc="http://purl.org/dc/elements/1.1/">
 <defs id="defs4298">
  <radialGradient id="radialGradient3058" gradientUnits="userSpaceOnUse" cy="43.5" cx="4.993" gradientTransform="matrix(2.0038 0 0 1.4 27.988 -17.4)" r="2.5">
   <stop id="stop2883" stop-color="#181818" offset="0"/>
   <stop id="stop2885" stop-color="#181818" stop-opacity="0" offset="1"/>
  </radialGradient>
  <radialGradient id="radialGradient3060" gradientUnits="userSpaceOnUse" cy="43.5" cx="4.993" gradientTransform="matrix(2.0038 0 0 1.4 -20.012 -104.4)" r="2.5">
   <stop id="stop2889" stop-color="#181818" offset="0"/>
   <stop id="stop2891" stop-color="#181818" stop-opacity="0" offset="1"/>
  </radialGradient>
  <linearGradient id="linearGradient3062" y2="39.999" gradientUnits="userSpaceOnUse" x2="25.058" y1="47.028" x1="25.058">
   <stop id="stop2895" stop-color="#181818" stop-opacity="0" offset="0"/>
   <stop id="stop2897" stop-color="#181818" offset=".5"/>
   <stop id="stop2899" stop-color="#181818" stop-opacity="0" offset="1"/>
  </linearGradient>
  <linearGradient id="linearGradient3074" y2="43" gradientUnits="userSpaceOnUse" x2="24" gradientTransform="translate(.000004 1)" y1="5" x1="24">
   <stop id="stop3897" stop-color="#fff" offset="0"/>
   <stop id="stop3899" stop-color="#fff" stop-opacity=".23529" offset=".052632"/>
   <stop id="stop3901" stop-color="#fff" stop-opacity=".15686" offset=".95056"/>
   <stop id="stop3903" stop-color="#fff" stop-opacity=".39216" offset="1"/>
  </linearGradient>
  <radialGradient id="radialGradient3078" gradientUnits="userSpaceOnUse" cy="9.9571" cx="7.1184" gradientTransform="matrix(0 9.1402 -11.221 0 136.56 -77.888)" r="12.672">
   <stop id="stop3750-1-0-7-6-6-1-3-9-3" stop-color="#505050" offset="0"/>
   <stop id="stop3752-3-7-4-0-32-8-923-0-7" stop-color="#2b2b2b" offset=".26238"/>
   <stop id="stop3754-1-8-5-2-7-6-7-1-9" stop-color="#0a0a0a" offset=".70495"/>
   <stop id="stop3756-1-6-2-6-6-1-96-6-0" offset="1"/>
  </radialGradient>
 </defs>
 <metadata id="metadata4301">
  <rdf:RDF>
   <cc:Work rdf:about="">
    <dc:format>image/svg+xml</dc:format>
    <dc:type rdf:resource="http://purl.org/dc/dcmitype/StillImage"/>
    <dc:title/>
   </cc:Work>
  </rdf:RDF>
 </metadata>
 <g id="g3712-5" opacity=".6" transform="matrix(1.1579 0 0 .64286 -3.7895 16.036)">
  <rect id="rect2801-3" height="7" width="5" y="40" x="38" fill="url(#radialGradient3058)"/>
  <rect id="rect3696-6" transform="scale(-1)" height="7" width="5" y="-47" x="-10" fill="url(#radialGradient3060)"/>
  <rect id="rect3700-4" height="7" width="28" y="40" x="10" fill="url(#linearGradient3062)"/>
 </g>
 <rect id="rect5505-21" style="color:#000000" rx="2" ry="2" height="39" width="39" y="5.5" x="4.5" fill="url(#radialGradient3078)"/>
 <rect id="rect5505-21-3-2" opacity=".7" stroke-linejoin="round" style="color:#000000" rx="2" ry="2" height="39" width="39" stroke="#000" stroke-linecap="round" y="5.5" x="4.5" fill="none"/>
 <rect id="rect6741" opacity=".3" stroke-linejoin="round" rx="1" ry="1" height="37" width="37" stroke="url(#linearGradient3074)" stroke-linecap="round" y="6.5" x="5.5" fill="none"/>
 <path id="path4487" opacity=".15" style="color:#000000" d="m8.4941 10c-0.2737 0-0.4941 0.22-0.4941 0.494v31.012c0 0.274 0.2204 0.494 0.4941 0.494h31.012c0.274 0 0.494-0.22 0.494-0.494v-31.012c0-0.274-0.22-0.494-0.494-0.494h-31.012zm2.5059 25h26v4h-26v-4z"/>
 <path id="rect4335" style="color:#000000" d="m8.4941 9c-0.2737 0-0.4941 0.2204-0.4941 0.4941v31.012c0 0.274 0.2204 0.494 0.4941 0.494h31.012c0.274 0 0.494-0.22 0.494-0.494v-31.012c0-0.2736-0.22-0.494-0.494-0.494h-31.012zm2.5059 25h26v4h-26v-4z" fill="#fff"/>
</svg>

<?xml version="1.0" encoding="UTF-8" standalone="no"?>
<!-- Created with Inkscape (http://www.inkscape.org/) -->

<svg
   xmlns:dc="http://purl.org/dc/elements/1.1/"
   xmlns:cc="http://creativecommons.org/ns#"
   xmlns:rdf="http://www.w3.org/1999/02/22-rdf-syntax-ns#"
   xmlns:svg="http://www.w3.org/2000/svg"
   xmlns="http://www.w3.org/2000/svg"
   xmlns:sodipodi="http://sodipodi.sourceforge.net/DTD/sodipodi-0.dtd"
   xmlns:inkscape="http://www.inkscape.org/namespaces/inkscape"
   id="svg4296"
   height="48"
   width="48"
   version="1.1"
   inkscape:version="0.91 r13725"
   sodipodi:docname="syspeek.svg">
  <sodipodi:namedview
     pagecolor="#ffffff"
     bordercolor="#666666"
     borderopacity="1"
     objecttolerance="10"
     gridtolerance="10"
     guidetolerance="10"
     inkscape:pageopacity="0"
     inkscape:pageshadow="2"
     inkscape:window-width="1535"
     inkscape:window-height="876"
     id="namedview34"
     showgrid="false"
     inkscape:zoom="4.9166667"
     inkscape:cx="-10.779661"
     inkscape:cy="24"
     inkscape:window-x="65"
     inkscape:window-y="24"
     inkscape:window-maximized="1"
     inkscape:current-layer="svg4296" />
  <defs
     id="defs4298">
    <radialGradient
       id="radialGradient3058"
       gradientUnits="userSpaceOnUse"
       cy="43.5"
       cx="4.993"
       gradientTransform="matrix(2.0038 0 0 1.4 27.988 -17.4)"
       r="2.5">
      <stop
         id="stop2883"
         stop-color="#181818"
         offset="0" />
      <stop
         id="stop2885"
         stop-color="#181818"
         stop-opacity="0"
         offset="1" />
    </radialGradient>
    <radialGradient
       id="radialGradient3060"
       gradientUnits="userSpaceOnUse"
       cy="43.5"
       cx="4.993"
       gradientTransform="matrix(2.0038 0 0 1.4 -20.012 -104.4)"
       r="2.5">
      <stop
         id="stop2889"
         stop-color="#181818"
         offset="0" />
      <stop
         id="stop2891"
         stop-color="#181818"
         stop-opacity="0"
         offset="1" />
    </radialGradient>
    <linearGradient
       id="linearGradient3062"
       y2="39.999"
       gradientUnits="userSpaceOnUse"
       x2="25.058"
       y1="47.028"
       x1="25.058">
      <stop
         id="stop2895"
         stop-color="#181818"
         stop-opacity="0"
         offset="0" />
      <stop
         id="stop2897"
         stop-color="#181818"
         offset=".5" />
      <stop
         id="stop2899"
         stop-color="#181818"
         stop-opacity="0"
         offset="1" />
    </linearGradient>
    <linearGradient
       id="linearGradient3074"
       y2="43"
       gradientUnits="userSpaceOnUse"
       x2="24"
       gradientTransform="translate(4e-6,1)"
       y1="5"
       x1="24">
      <stop
         id="stop3897"
         stop-color="#fff"
         offset="0" />
      <stop
         id="stop3899"
         stop-color="#fff"
         stop-opacity=".23529"
         offset=".052632" />
      <stop
         id="stop3901"
         stop-color="#fff"
         stop-opacity=".15686"
         offset=".95056" />
      <stop
         id="stop3903"
         stop-color="#fff"
         stop-opacity=".39216"
         offset="1" />
    </linearGradient>
    <radialGradient
       id="radialGradient3078"
       gradientUnits="userSpaceOnUse"
       cy="9.9571"
       cx="7.1184"
       gradientTransform="matrix(0,9.1402,-11.221,0,136.56,-77.888)"
       r="12.672">
      <stop
         id="stop3750-1-0-7-6-6-1-3-9-3"
         stop-color="#505050"
         offset="0" />
      <stop
         id="stop3752-3-7-4-0-32-8-923-0-7"
         stop-color="#2b2b2b"
         offset=".26238" />
      <stop
         id="stop3754-1-8-5-2-7-6-7-1-9"
         stop-color="#0a0a0a"
         offset=".70495" />
      <stop
         id="stop3756-1-6-2-6-6-1-96-6-0"
         offset="1" />
    </radialGradient>
  </defs>
  <metadata
     id="metadata4301">
    <rdf:RDF>
      <cc:Work
         rdf:about="">
        <dc:format>image/svg+xml</dc:format>
        <dc:type
           rdf:resource="http://purl.org/dc/dcmitype/StillImage" />
        <dc:title />
      </cc:Work>
    </rdf:RDF>
  </metadata>
  <g
     id="g4162"
     transform="translate(0,-1)">
    <rect
       x="4.5"
       y="5.5"
       width="39"
       height="39"
       ry="2"
       rx="2"
       style="color:#000000;fill:url(#radialGradient3078)"
       id="rect5505-21" />
    <rect
       x="4.5"
       y="5.5"
       width="39"
       height="39"
       ry="2"
       rx="2"
       style="color:#000000;opacity:0.7;fill:none;stroke:#000000;stroke-linecap:round;stroke-linejoin:round"
       id="rect5505-21-3-2" />
    <rect
       x="5.5"
       y="6.5"
       width="37"
       height="37"
       ry="1"
       rx="1"
       id="rect6741"
       style="opacity:0.3;fill:none;stroke:url(#linearGradient3074);stroke-linecap:round;stroke-linejoin:round" />
    <path
       d="M 8.4941,10 C 8.2204,10 8,10.22 8,10.494 L 8,41.506 C 8,41.78 8.2204,42 8.4941,42 l 31.012,0 c 0.274,0 0.494,-0.22 0.494,-0.494 l 0,-31.012 C 40.0001,10.22 39.7801,10 39.5061,10 L 8.4941,10 Z M 11,35 l 26,0 0,4 -26,0 0,-4 z"
       style="color:#000000;opacity:0.15"
       id="path4487"
       inkscape:connector-curvature="0" />
    <path
       d="M 8.4941,9 C 8.2204,9 8,9.2204 8,9.4941 l 0,31.012 c 0,0.274 0.2204,0.494 0.4941,0.494 l 31.012,0 c 0.274,0 0.494,-0.22 0.494,-0.494 l 0,-31.012 c 0,-0.2736 -0.22,-0.494 -0.494,-0.494 l -31.012,0 z M 11,34 l 26,0 0,4 -26,0 0,-4 z"
       style="color:#000000;fill:#ffffff"
       id="rect4335"
       inkscape:connector-curvature="0" />
  </g>
</svg>
